X:182
T: FRAU SCHWALBE IST NE SCHWAETZERIN
N: F0318
O: Europa, Mitteleuropa, Deutschland
R: Jugend - Lied, Natur, Tier
M: 2/4
L: 1/8
K: G
B | BDDB | ADD
e | eFFe | d2z
B | BDDB | ADD
B | AGFE | D2z
D | DcAD | DBG
D | EEFF | G2z
D | DcAD | DBG
D | EEFF | G2z

@@@ Tune index: 5613
